images/icons/snapchat.svg

<svg fill="none" height="24" viewBox="0 0 24 24" width="24" xmlns="http://www.w3.org/2000/svg" xmlns:xlink="http://www.w3.org/1999/xlink"><clipPath id="a"><path d="m0 0h24v24h-24z"/></clipPath><g clip-path="url(#a)"><path d="m22.2398 17.6932c-3.6893-1.8076-4.2773-4.5985-4.3034-4.8055-.0317-.2507-.0676-.4479.2057-.7029.2636-.2465 1.4328-.979 1.7573-1.2082.5362-.3795.7724-.7584.5983-1.2241-.1217-.32222-.4181-.44359-.7304-.44359-.0985.00031-.1967.01146-.2928.03327-.5892.12938-1.1614.42818-1.4925.50889-.0398.01038-.0806.01597-.1217.01663-.1766 0-.2435-.07947-.2265-.29449.0414-.65181.1291-1.92403.0274-3.11246-.1394-1.6351-.6604-2.44525-1.2782-3.16176-.2989-.34747-1.6867-1.84025-4.365-1.84025-2.6782 0-4.06419 1.49278-4.36123 1.83594-.61965.71651-1.14008 1.52666-1.27825 3.16175-.10165 1.18843-.01035 2.46004.02739 3.11247.01218.20454-.04991.29449-.22643.29449-.04108-.00071-.08194-.00629-.12174-.01663-.33052-.08071-.90269-.37951-1.4919-.50889-.09611-.02181-.19429-.03296-.29278-.03327-.31348 0-.60869.12322-.73043.44358-.17409.46572.06087.84462.59895 1.22412.32443.2292 1.49373.9611 1.75729 1.2082.2727.255.23739.4522.20574.7029-.02617.2101-.61478 3.001-4.30345 4.8055-.21608.1059-.58373.3302.06452.6925 1.01773.5692 1.69521.5082 2.22173.8514.44678.2914.1826.9198.50764 1.1465.39931.2791 1.57956-.0197 3.10433.4898 1.27825.4263 2.05494 1.6308 4.32172 1.6308 2.2668 0 3.066-1.21 4.3217-1.6308 1.5217-.5095 2.7044-.2107 3.1043-.4898.3245-.2267.0609-.8551.5077-1.1465.5265-.3432 1.2034-.2822 2.2217-.8514.647-.358.2794-.5822.0633-.6882z" fill="#fff"/><path d="m23.4178 17.3218c-.1599-.4416-.4643-.6778-.811-.8735-.0652-.0388-.1251-.0698-.1763-.0937-.1034-.0543-.2092-.1068-.3144-.1623-1.0806-.5817-1.9245-1.3156-2.5098-2.1855-.1662-.2449-.3103-.5045-.4307-.7756-.05-.145-.0476-.2273-.0118-.3025.0356-.0579.0826-.1077.1381-.1462.1857-.1247.3773-.2512.5072-.3365.2315-.1522.4148-.2727.533-.358.4436-.315.7539-.6497.9478-1.0238.1353-.2585.2142-.5435.2314-.8357.0171-.29217-.0279-.58467-.1321-.85761-.2938-.78518-1.0242-1.27264-1.9092-1.27264-.1867-.00018-.3728.01982-.5553.05967-.0488.01074-.0976.02207-.1452.0346.0082-.53698-.0035-1.10379-.0505-1.66165-.1669-1.96117-.8433-2.98918-1.5485-3.80897-.4515-.51372-.9834-.94833-1.5743-1.28636-1.0701-.620512-2.2835-.93554-3.6063-.93554s-2.5304.315028-3.60167.93554c-.59228.33813-1.12525.77362-1.57724 1.28875-.70517.81978-1.38154 1.84959-1.54843 3.80897-.04701.55786-.05877 1.12765-.05113 1.66165-.0476-.01253-.09578-.02387-.14456-.03461-.1825-.03984-.36865-.05984-.55532-.05966-.88558 0-1.61719.48746-1.90984 1.27264-.1046.27305-.15008.56577-.13335.85822.01673.2925.09528.5779.23031.8368.19451.3741.50479.7089.94846 1.0239.11753.0835.30146.204.53299.358.12517.0823.30792.2028.48715.3233.06271.0412.11601.0955.15632.1594.03761.0781.03878.1622-.01704.3174-.11874.2654-.26053.5196-.42369.7595-.57237.8502-1.39154 1.571-2.43754 2.1479-.55415.2983-1.13004.4976-1.373324 1.1688-.183345.5066-.063466 1.0829.402534 1.5686.17103.1813.36939.3337.58764.4517.45413.2534.93702.4495 1.43796.5841.10338.0271.20152.0716.2903.1318.16983.151.14573.3783.37198.7112.11357.1721.25787.321.42545.4392.47481.3329 1.00839.3538 1.57371.3759.51066.0196 1.08948.0423 1.75058.2637.27384.0919.55826.2697.88793.4773.79155.494 1.87512 1.17 3.68862 1.17s2.9047-.6796 3.7022-1.1754c.3273-.204.6099-.38.8761-.4695.6611-.222 1.24-.2441 1.7506-.2638.5653-.022 1.0989-.0429 1.5737-.3758.1985-.1406.3639-.3239.4842-.537.1628-.281.1587-.4773.3115-.6146.0833-.0573.1754-.1001.2727-.1265.5077-.1349.9972-.3329 1.4573-.5894.2319-.1263.4406-.2922.617-.4905l.0059-.0071c.4372-.475.5471-1.0346.3679-1.5286zm-1.6119.8794c-.9832.5513-1.6366.4922-2.1449.8246-.4319.2822-.1763.8908-.4901 1.1103-.3855.2703-1.5249-.0191-2.997.4744-1.2141.4075-1.9886 1.5793-4.1723 1.5793-2.18363 0-2.93993-1.1695-4.17398-1.5823-1.4691-.4935-2.61089-.2041-2.99697-.4744-.31321-.2195-.05876-.8281-.49009-1.1103-.5089-.3323-1.16236-.2733-2.1449-.8216-.62584-.3508-.2709-.568-.06229-.6706 3.56111-1.7506 4.12936-4.4534 4.15463-4.6538.03056-.2429.06464-.4338-.19862-.6808-.25445-.2387-1.38331-.9481-1.69652-1.17-.5183-.3676-.74631-.7345-.57824-1.18555.11752-.31205.40429-.42958.70517-.42958.09509.00029.18986.0111.28265.03222.56884.12529 1.12122.41466 1.44031.49282.03843.01002.07787.01542.11753.01611.17042 0 .23036-.08711.21861-.28519-.03644-.63185-.12458-1.86332-.02645-3.01424.13457-1.5835.63701-2.36808 1.23405-3.06198.28677-.33352 1.63423-1.77919 4.21101-1.77919 2.5768 0 3.9278 1.4397 4.2146 1.77203.5976.6939 1.1007 1.47848 1.2341 3.06198.0981 1.15092.0135 2.38299-.0265 3.01424-.0135.20822.0482.28519.2186.28519.0397-.00064.0791-.00605.1175-.01611.3197-.07816.8721-.36753 1.4409-.49282.0928-.02113.1876-.03193.2827-.03222.3026 0 .5876.11933.7052.42958.168.45111-.0588.81801-.5777 1.18551-.3132.222-1.4421.9308-1.6965 1.17-.2639.247-.2292.438-.1986.6808.0252.2035.5929 2.9063 4.1546 4.6538.2104.1068.5653.324-.0605.6778z" fill="#000"/></g></svg>

<svg width="24" height="24" viewBox="0 0 24 24" fill="none" xmlns="http://www.w3.org/2000/svg">
<path d="M22.2398 17.6933C18.5505 15.8857 17.9625 13.0948 17.9364 12.8878C17.9047 12.6371 17.8688 12.4399 18.1421 12.1849C18.4057 11.9384 19.5749 11.2059 19.8994 10.9767C20.4356 10.5972 20.6718 10.2183 20.4977 9.75256C20.376 9.43034 20.0796 9.30897 19.7673 9.30897C19.6688 9.30928 19.5706 9.32043 19.4745 9.34224C18.8853 9.47162 18.3131 9.77042 17.982 9.85113C17.9422 9.86151 17.9014 9.8671 17.8603 9.86776C17.6837 9.86776 17.6168 9.78829 17.6338 9.57327C17.6752 8.92146 17.7629 7.64924 17.6612 6.46081C17.5218 4.82571 17.0008 4.01556 16.383 3.29905C16.0841 2.95158 14.6963 1.4588 12.018 1.4588C9.3398 1.4588 7.95381 2.95158 7.65677 3.29474C7.03712 4.01125 6.51669 4.8214 6.37852 6.45649C6.27687 7.64492 6.36817 8.91653 6.40591 9.56896C6.41809 9.7735 6.356 9.86345 6.17948 9.86345C6.1384 9.86274 6.09754 9.85716 6.05774 9.84682C5.72722 9.76611 5.15505 9.46731 4.56584 9.33793C4.46973 9.31612 4.37155 9.30497 4.27306 9.30466C3.95958 9.30466 3.66437 9.42788 3.54263 9.74824C3.36854 10.214 3.6035 10.5929 4.14158 10.9724C4.46601 11.2016 5.63531 11.9335 5.89887 12.1806C6.17157 12.4356 6.13626 12.6328 6.10461 12.8835C6.07844 13.0936 5.48983 15.8845 1.80116 17.689C1.58508 17.7949 1.21743 18.0192 1.86568 18.3815C2.88341 18.9507 3.56089 18.8897 4.08741 19.2329C4.53419 19.5243 4.27001 20.1527 4.59505 20.3794C4.99436 20.6585 6.17461 20.3597 7.69938 20.8692C8.97763 21.2955 9.75432 22.5 12.0211 22.5C14.2879 22.5 15.0871 21.29 16.3428 20.8692C17.8645 20.3597 19.0472 20.6585 19.4471 20.3794C19.7716 20.1527 19.508 19.5243 19.9548 19.2329C20.4813 18.8897 21.1582 18.9507 22.1765 18.3815C22.8235 18.0235 22.4559 17.7993 22.2398 17.6933Z" fill="white"/>
<path d="M23.4178 17.3218C23.2579 16.8802 22.9535 16.644 22.6068 16.4483C22.5416 16.4095 22.4817 16.3785 22.4305 16.3546C22.3271 16.3003 22.2213 16.2478 22.1161 16.1923C21.0355 15.6106 20.1916 14.8767 19.6063 14.0068C19.4401 13.7619 19.296 13.5023 19.1756 13.2312C19.1256 13.0862 19.128 13.0039 19.1638 12.9287C19.1994 12.8708 19.2464 12.821 19.3019 12.7825C19.4876 12.6578 19.6792 12.5313 19.8091 12.446C20.0406 12.2938 20.2239 12.1733 20.3421 12.088C20.7857 11.773 21.096 11.4383 21.2899 11.0642C21.4252 10.8057 21.5041 10.5207 21.5213 10.2285C21.5384 9.93633 21.4934 9.64383 21.3892 9.37089C21.0954 8.58571 20.365 8.09825 19.48 8.09825C19.2933 8.09807 19.1072 8.11807 18.9247 8.15792C18.8759 8.16866 18.8271 8.17999 18.7795 8.19252C18.7877 7.65554 18.776 7.08873 18.729 6.53087C18.5621 4.5697 17.8857 3.54169 17.1805 2.7219C16.729 2.20818 16.1971 1.77357 15.6062 1.43554C14.5361 0.815028 13.3227 0.5 11.9999 0.5C10.6771 0.5 9.4695 0.815028 8.39823 1.43554C7.80595 1.77367 7.27298 2.20916 6.82099 2.72429C6.11582 3.54407 5.43945 4.57388 5.27256 6.53326C5.22555 7.09112 5.21379 7.66091 5.22143 8.19491C5.17383 8.18238 5.12565 8.17104 5.07687 8.1603C4.89437 8.12046 4.70822 8.10046 4.52155 8.10064C3.63597 8.10064 2.90436 8.5881 2.61171 9.37328C2.50711 9.64633 2.46163 9.93905 2.47836 10.2315C2.49509 10.524 2.57364 10.8094 2.70867 11.0683C2.90318 11.4424 3.21346 11.7772 3.65713 12.0922C3.77466 12.1757 3.95859 12.2962 4.19012 12.4502C4.31529 12.5325 4.49804 12.653 4.67727 12.7735C4.73998 12.8147 4.79328 12.869 4.83359 12.9329C4.8712 13.011 4.87237 13.0951 4.81655 13.2503C4.69781 13.5157 4.55602 13.7699 4.39286 14.0098C3.82049 14.86 3.00132 15.5808 1.95532 16.1577C1.40117 16.456 0.82528 16.6553 0.581996 17.3265C0.398651 17.8331 0.51853 18.4094 0.98453 18.8951C1.15556 19.0764 1.35392 19.2288 1.57217 19.3468C2.0263 19.6002 2.50919 19.7963 3.01013 19.9309C3.11351 19.958 3.21165 20.0025 3.30043 20.0627C3.47026 20.2137 3.44616 20.441 3.67241 20.7739C3.78598 20.946 3.93028 21.0949 4.09786 21.2131C4.57267 21.546 5.10625 21.5669 5.67157 21.589C6.18223 21.6086 6.76105 21.6313 7.42215 21.8527C7.69599 21.9446 7.98041 22.1224 8.31008 22.33C9.10163 22.824 10.1852 23.5 11.9987 23.5C13.8122 23.5 14.9034 22.8204 15.7009 22.3246C16.0282 22.1206 16.3108 21.9446 16.577 21.8551C17.2381 21.6331 17.817 21.611 18.3276 21.5913C18.8929 21.5693 19.4265 21.5484 19.9013 21.2155C20.0998 21.0749 20.2652 20.8916 20.3855 20.6785C20.5483 20.3975 20.5442 20.2012 20.697 20.0639C20.7803 20.0066 20.8724 19.9638 20.9697 19.9374C21.4774 19.8025 21.9669 19.6045 22.427 19.348C22.6589 19.2217 22.8676 19.0558 23.044 18.8575L23.0499 18.8504C23.4871 18.3754 23.597 17.8158 23.4178 17.3218ZM21.8059 18.2012C20.8227 18.7525 20.1693 18.6934 19.661 19.0258C19.2291 19.308 19.4847 19.9166 19.1709 20.1361C18.7854 20.4064 17.646 20.117 16.1739 20.6105C14.9598 21.018 14.1853 22.1898 12.0016 22.1898C9.81797 22.1898 9.06167 21.0203 7.82762 20.6075C6.35852 20.114 5.21673 20.4034 4.83065 20.1331C4.51744 19.9136 4.77189 19.305 4.34056 19.0228C3.83166 18.6905 3.1782 18.7495 2.19566 18.2012C1.56982 17.8504 1.92476 17.6332 2.13337 17.5306C5.69448 15.78 6.26273 13.0772 6.288 12.8768C6.31856 12.6339 6.35264 12.443 6.08938 12.196C5.83493 11.9573 4.70607 11.2479 4.39286 11.026C3.87456 10.6584 3.64655 10.2915 3.81462 9.84045C3.93214 9.5284 4.21891 9.41087 4.51979 9.41087C4.61488 9.41116 4.70965 9.42197 4.80244 9.44309C5.37128 9.56838 5.92366 9.85775 6.24275 9.93591C6.28118 9.94593 6.32062 9.95133 6.36028 9.95202C6.5307 9.95202 6.59064 9.86491 6.57889 9.66683C6.54245 9.03498 6.45431 7.80351 6.55244 6.65259C6.68701 5.06909 7.18945 4.28451 7.78649 3.59061C8.07326 3.25709 9.42072 1.81142 11.9975 1.81142C14.5743 1.81142 15.9253 3.25112 16.2121 3.58345C16.8097 4.27735 17.3128 5.06193 17.4462 6.64543C17.5443 7.79635 17.4597 9.02842 17.4197 9.65967C17.4062 9.86789 17.4679 9.94486 17.6383 9.94486C17.678 9.94422 17.7174 9.93881 17.7558 9.92875C18.0755 9.85059 18.6279 9.56122 19.1967 9.43593C19.2895 9.4148 19.3843 9.404 19.4794 9.40371C19.782 9.40371 20.067 9.52304 20.1846 9.83329C20.3526 10.2844 20.1258 10.6513 19.6069 11.0188C19.2937 11.2408 18.1648 11.9496 17.9104 12.1888C17.6465 12.4358 17.6812 12.6268 17.7118 12.8696C17.737 13.0731 18.3047 15.7759 21.8664 17.5234C22.0768 17.6302 22.4317 17.8474 21.8059 18.2012Z" fill="black"/>
</svg>
